flaticon/travel/gps-1.svg

<svg xmlns="http://www.w3.org/2000/svg" width="32" height="32" viewBox="0 0 24 24">
    <path d="M12 14.199219C11.777344 14.199219 11.601562 14.378906 11.601562 14.601562L11.601562 15.398438C11.601562 15.621094 11.777344 15.800781 12 15.800781 12.222656 15.800781 12.398438 15.621094 12.398438 15.398438L12.398438 14.601562C12.398438 14.378906 12.222656 14.199219 12 14.199219zM12 12.199219C11.777344 12.199219 11.601562 12.378906 11.601562 12.601562L11.601562 13.398438C11.601562 13.621094 11.777344 13.800781 12 13.800781 12.222656 13.800781 12.398438 13.621094 12.398438 13.398438L12.398438 12.601562C12.398438 12.378906 12.222656 12.199219 12 12.199219zM12 12.199219"/>
    <path d="M 21.304688 2.601562 L 2.695312 2.601562 C 1.207031 2.601562 0 3.808594 0 5.292969 L 0 18.703125 C 0 20.191406 1.207031 21.398438 2.695312 21.398438 L 21.304688 21.398438 C 22.792969 21.398438 24 20.191406 24 18.707031 L 24 5.292969 C 24 3.808594 22.792969 2.601562 21.304688 2.601562 Z M 23.199219 18.707031 C 23.199219 19.75 22.351562 20.601562 21.304688 20.601562 L 2.695312 20.601562 C 1.652344 20.601562 0.800781 19.75 0.800781 18.707031 L 0.800781 5.292969 C 0.800781 4.25 1.652344 3.398438 2.695312 3.398438 L 21.304688 3.398438 C 22.351562 3.398438 23.199219 4.25 23.199219 5.292969 Z M 23.199219 18.707031"/>
    <path d="M20.828125 4.199219L3.171875 4.199219C2.304688 4.199219 1.601562 4.90625 1.601562 5.773438L1.601562 15.828125C1.601562 16.695312 2.304688 17.398438 3.171875 17.398438L20.828125 17.398438C21.695312 17.398438 22.398438 16.695312 22.398438 15.828125L22.398438 5.773438C22.398438 4.90625 21.695312 4.199219 20.828125 4.199219zM12.398438 16.601562C12.398438 16.378906 12.222656 16.199219 12 16.199219 11.777344 16.199219 11.601562 16.378906 11.601562 16.601562L5.441406 16.601562 8.246094 11 11.601562 11 11.601562 11.398438C11.601562 11.621094 11.777344 11.800781 12 11.800781 12.222656 11.800781 12.398438 11.621094 12.398438 11.398438L12.398438 11 15.753906 11 17.632812 14.703125C17.648438 14.757812 17.671875 14.808594 17.707031 14.851562L18.59375 16.601562C18.59375 16.601562 12.398438 16.601562 12.398438 16.601562zM21.601562 15.828125C21.601562 16.253906 21.253906 16.601562 20.828125 16.601562L19.488281 16.601562 18.410156 14.472656 18.410156 10.199219 18.808594 10.199219C18.964844 10.199219 19.109375 10.121094 19.199219 9.988281L19.929688 8.84375C20.023438 8.695312 20.023438 8.503906 19.925781 8.351562L19.195312 7.210938C19.109375 7.078125 18.964844 7 18.808594 7L17.339844 7C17.183594 7 17.035156 7.078125 16.949219 7.210938L16.21875 8.347656C16.125 8.5 16.125 8.699219 16.21875 8.847656L16.949219 9.988281C17.035156 10.121094 17.183594 10.199219 17.339844 10.199219L17.613281 10.199219 17.613281 12.894531 16.246094 10.199219 7.753906 10.199219 4.542969 16.601562 3.171875 16.601562C2.746094 16.601562 2.398438 16.253906 2.398438 15.828125L2.398438 5.773438C2.398438 5.347656 2.746094 5 3.171875 5L20.828125 5C21.253906 5 21.601562 5.347656 21.601562 5.773438zM17.523438 9.398438L17.011719 8.601562 17.523438 7.800781 18.625 7.800781 19.136719 8.601562 18.625 9.398438zM4.496094 17.800781L3.503906 17.800781C3.117188 17.800781 2.800781 18.117188 2.800781 18.503906L2.800781 19.496094C2.800781 19.882812 3.117188 20.199219 3.503906 20.199219L4.496094 20.199219C4.882812 20.199219 5.199219 19.882812 5.199219 19.496094L5.199219 18.503906C5.199219 18.117188 4.882812 17.800781 4.496094 17.800781zM4.398438 19.398438L3.601562 19.398438 3.601562 18.601562 4.398438 18.601562zM7.695312 17.800781L6.703125 17.800781C6.316406 17.800781 6 18.117188 6 18.503906L6 19.496094C6 19.882812 6.316406 20.199219 6.703125 20.199219L7.695312 20.199219C8.085938 20.199219 8.398438 19.882812 8.398438 19.496094L8.398438 18.503906C8.398438 18.117188 8.085938 17.800781 7.695312 17.800781zM7.601562 19.398438L6.800781 19.398438 6.800781 18.601562 7.601562 18.601562zM7.601562 19.398438"/>
</svg>

<svg xmlns="http://www.w3.org/2000/svg" width="32" height="32" viewBox="0 0 24 24">
    <path d="M12 14.2a.398.398 0 0 0-.398.402v.796a.398.398 0 1 0 .796 0v-.796a.398.398 0 0 0-.398-.403zm0 0M12 12.2a.398.398 0 0 0-.398.402v.796a.398.398 0 1 0 .796 0v-.796a.398.398 0 0 0-.398-.403zm0 0"/>
    <path d="M21.305 2.602H2.695A2.695 2.695 0 0 0 0 5.293v13.41a2.696 2.696 0 0 0 2.695 2.695h18.61A2.695 2.695 0 0 0 24 18.707V5.293a2.695 2.695 0 0 0-2.695-2.691zm1.894 16.105a1.896 1.896 0 0 1-1.894 1.895H2.695a1.899 1.899 0 0 1-1.894-1.895V5.293c0-1.043.851-1.895 1.894-1.895h18.61c1.047 0 1.894.852 1.894 1.895zm0 0"/>
    <path d="M20.828 4.2H3.172c-.867 0-1.57.706-1.57 1.573v10.055c0 .867.703 1.57 1.57 1.57h17.656a1.57 1.57 0 0 0 1.57-1.57V5.773c0-.867-.703-1.574-1.57-1.574zm-8.43 12.402a.398.398 0 1 0-.796 0h-6.16L8.245 11h3.356v.398a.398.398 0 1 0 .796 0V11h3.356l1.879 3.703c.015.055.039.106.074.149l.887 1.75h-6.196zm9.204-.774a.775.775 0 0 1-.774.774h-1.34l-1.078-2.13V10.2h.399a.47.47 0 0 0 .39-.21l.73-1.145a.458.458 0 0 0-.003-.492l-.73-1.141A.459.459 0 0 0 18.808 7h-1.47a.465.465 0 0 0-.39.21l-.73 1.138a.48.48 0 0 0 0 .5l.73 1.14c.086.133.235.211.39.211h.274v2.696l-1.367-2.696H7.754l-3.211 6.403H3.172a.775.775 0 0 1-.774-.774V5.773c0-.425.348-.773.774-.773h17.656c.426 0 .774.348.774.773zm-4.079-6.43l-.511-.796.511-.801h1.102l.512.8-.512.797zm0 0M4.496 17.8h-.992a.705.705 0 0 0-.703.704v.992c0 .387.316.703.703.703h.992a.705.705 0 0 0 .703-.703v-.992a.705.705 0 0 0-.703-.703zm-.098 1.598h-.796v-.796h.796zm0 0M7.695 17.8h-.992a.705.705 0 0 0-.703.704v.992c0 .387.316.703.703.703h.992c.39 0 .703-.316.703-.703v-.992a.703.703 0 0 0-.703-.703zm-.093 1.598H6.8v-.796h.8zm0 0"/>
</svg>
